X:7
T:Untitled. JBs.007
S:Jas.Blackshaw MS, 1837, N.Shropshire
A:North Shropshire
Z:Tony Weatherall 2006
N:A bit of a mess to sort out!CGP.
M:2/4
L:1/8
Q:1/2=80
R:a
K:C
G2|â€_As Writtenâ€c>dc>d|(BG) G2|c>dc>e|g3g|affd|geec|(de)(fd)|cBAG|!
c>dc>d|BG G2|c>dc>e|g3g|affd|geec|dcde|c2c2::!
e2|g>ag>a|fdd2|fgfg|ecc2|G2c/c/c/c/|e2c2|dddd|\
fd|afdc|cBAG|!
c>dc>d|BGG2|c>dc>e|a3g|affd|g>ee>c|d>cd>e|c4|]

